packages/ckeditor5-icons/theme/icons/document.svg

<svg viewBox="0 0 20 20" xmlns="http://www.w3.org/2000/svg">
<path fill-rule="evenodd" clip-rule="evenodd" d="M2.75 1.70098C2.75 1.17631 3.17533 0.750977 3.7 0.750977H11.3107L17.25 6.69032V18.301C17.25 18.8256 16.8247 19.251 16.3 19.251H3.7C3.17532 19.251 2.75 18.8256 2.75 18.301V1.70098ZM4.25 2.25098V17.751H15.75V7.75098H11.2C10.6753 7.75098 10.25 7.32565 10.25 6.80098V2.25098H4.25ZM11.75 3.31164L14.6893 6.25098H11.75V3.31164Z"/>
</svg>

<svg xmlns="http://www.w3.org/2000/svg" viewBox="0 0 20 20"><path fill-rule="evenodd" d="M2.75 1.701a.95.95 0 0 1 .95-.95h7.61l5.94 5.94V18.3a.95.95 0 0 1-.95.95H3.7a.95.95 0 0 1-.95-.95zm1.5.55v15.5h11.5v-10H11.2a.95.95 0 0 1-.95-.95v-4.55zm7.5 1.06 2.94 2.94h-2.94z" clip-rule="evenodd"/></svg>
